X:1
T:Megöltek egy legényt
C:Hungarian folk song
Z:Public Domain
L:1/8
M:4/4
K:C
V:1 treble nm="Voice"
%%MIDI program 52
V:1
 A E3 A E3 | A4 G4 | c2 c2 B A3 | E4 C4 | C3 D E2 A2 | G2 E2 C2 A,2 | E F3 E2 D2 | A,4 A,4 |] %8
w: Meg- öl- tek egy|le- gényt|hat- van fo- rint-|já- ért,|Bé- vet- et- ték|a Ti- szá- ba|pi- ros pej- lo-|vá- ért.-|

